projects/vfh1/img/icons/arrow-li.svg

<svg viewBox="0 0 16 16" fill="none" xmlns="http://www.w3.org/2000/svg">
<path fill="currentColor" d="M13.0473 5.00001L2.48179 15.5952C2.2437 15.8333 1.96076 15.9524 1.63298 15.9524C1.306 15.9524 1.02346 15.8333 0.785365 15.5952C0.54727 15.3572 0.428223 15.0742 0.428223 14.7464C0.428223 14.4195 0.54727 14.1369 0.785365 13.8988L11.3806 3.33334H2.33298C1.99568 3.33334 1.71275 3.21946 1.48418 2.99168C1.2564 2.76311 1.14251 2.48017 1.14251 2.14287C1.14251 1.80557 1.2564 1.52263 1.48418 1.29406C1.71275 1.06628 1.99568 0.952393 2.33298 0.952393H14.2377C14.575 0.952393 14.8576 1.06628 15.0854 1.29406C15.3139 1.52263 15.4282 1.80557 15.4282 2.14287V14.0476C15.4282 14.3849 15.3139 14.6675 15.0854 14.8952C14.8576 15.1238 14.575 15.2381 14.2377 15.2381C13.9004 15.2381 13.6179 15.1238 13.3901 14.8952C13.1616 14.6675 13.0473 14.3849 13.0473 14.0476V5.00001Z" />
</svg>

<svg viewBox="0 0 16 16" fill="none" xmlns="http://www.w3.org/2000/svg"><path fill="currentColor" d="M13.047 5L2.482 15.595a1.16 1.16 0 01-.849.357c-.327 0-.61-.119-.848-.357a1.16 1.16 0 01-.357-.849c0-.327.12-.61.357-.847L11.381 3.333H2.333c-.337 0-.62-.114-.849-.341a1.155 1.155 0 01-.341-.85c0-.336.113-.62.341-.848.229-.228.512-.342.849-.342h11.905c.337 0 .62.114.847.342.229.229.343.512.343.849v11.905c0 .337-.114.62-.343.847-.227.229-.51.343-.847.343-.338 0-.62-.114-.848-.343a1.149 1.149 0 01-.343-.847V5z"/></svg>
